X:2
T:Sweet Willie - a different set
Z:Jack Campin - http://www.campin.me.uk
S:Blaikie MS (NLS MS.1578) p1, no Blaikie #
M:C
L:1/8
V:1 midi program 1 74
V:2 midi program 1 46 bass middle = d transpose -24
Q:1/4=108
K:Bb
[V:1] F2|GBBc d2cB|G>FGB F2B,2|DFBc d2cB|
[V:2] z2|e2dc B2d2|e2 e2 d2B2 |B2b2 B2b2|
%
[V:1] Bcde f2fg|fdcB B/c/d cB|GFGB F2D2|
[V:2] B2b2 a2f2|B2b2 B2    d2|e2e2 d2B2|
%
[V:1] E2E2 FdcB|F2Bc d2BG|FDDF fdcB|G2Bc B2 |]
[V:2] e2c2 B2b2|B2b2 B2e2|d2B2 b2d2|e2f2 B2 |]
W:Transcription (c) Jack Campin 2009, no mirroring or republication without permission

